X: 604
T: Golden Slippers
C:James A. Bland (1879)
B: jims roots
M:4/4
L:1/8
R: reel
Q: 1/4=100
K:Amaj
V:1 
AB |:"A" cBcd cBAB | cBcd cBAB | cBcc dcdc |
"E" c2B2 B2GA | B2 Bc BAGA | B2 Bc BAGA | B2 d2 c3 B |  [1 "A" B2A2 A2AB:|
 [2 "A" B2A2 A4|:"A" E6 A2 | c2 B2 A2 E2 | "D" F6 A2 | d2 c2  B2 F2 |"E" G3 G G2 A2 |
V:[1 B3 B B2 E2 | "A" A3 G A2 B2 | c2 A2 F2 E2:|  [2 B3 B B2 d2 | c3 d c2 B2 | "A" A6 |
% abcbook-tune_id 6298c25d74f99be91e5c2cb0


% abcbook-boost 0
% abcbook-tablature 
% abcbook-transpose 
% abcbook-lastupdated 1654178398294
% abcbook-soundfonts 
% abcbook-repeats 1


